X:1
T:James Gibb editions
T:Caro mea vere est cibus  - de Rore
T:#
%%score [ 1 2 3 4 ]
L:1/8
Q:1/4=96
M:4/4
K:F
V:1 treble-8 nm="Tenor I" snm="T I"
V:2 treble-8 nm="Tenor II" snm="T II"
V:3 treble-8 nm="Tenor III" snm="T III"
V:4 bass nm="Bass" snm="B"
V:1
"^Cipriano de Rore\n(1515-65)" z8 | z8 |"^Caro mea vere est cibus" z8 | z8 | d8 | d4 c4 | %6
w: ||||Ca-|ro me-|
 B2 d4 d2 | c2 (f3 e ed/e/ |[M:4/4][K:treble-8] f4 d4- | d4 z4 | d8 | d4 c4 | B2 d4 d2 | %13
w: a ve- re|est ci\- * * * *|* bus,||ca-|ro me-|a ve- re|
 c2 (f3 e e2) | f4 z4 | z4 c4 | d6 B2 | d4 c4 | B3 c d2) G2 | G2 (B3 A) A2 | B2 d2 B2 (_e2- | %21
w: est ci\- * *|bus:|et|san- guis|me- us|ve\- * * re|est po\- * tus,|et san- guis me\-|
 ed dc/B/ c2) F2 | z2 F4 G2 | F2 (B3 A A2) | d8- | d4 z4 | z4 z2 B2- | B2 B2 B2 c2 | d4 G2 (d2- | %29
w: * * * * * * us|ve- re|est po\- * *|tus.||Qui|* man- du- cat|me- am car\-|
 dc/B/ AG BA Bc | de f3 e/d/ fe | f3 d) d4 | z4 z2 G2 | G2 F2 B2 G2 | B2 c2 d2 f2- | %35
w: ||* * nem|et|bi bit me- um|san- gui- nem, et|
 f2 e2 c2 (f2- | f2 ed c2 FG | AB) c4 d2- | d2 c2 A2 A2 | d4 B4 | G2 c2 _e4 | d2 c2 (f3 d) | %42
w: * bi- bit me\-||* * um san\-|* gui- nem in|me ma-|net, et e-|go in il\- *|
 d4 z4 | z2 G2 d4 | B4 G2 G2 | (AB cd e2) f2 | e2 (d3 c) c2 | (f3 e dc d2- | dc BA/G/ FE FG) | %49
w: lo,|in me|ma- net, et|e\- * * * * go|in il\- * lo,|il\- * * * *||
 A4 z4 | z8 | z8 | z4 z2 G2 | B2 B2 c4 | c2 d4 c2 | (Bc d3 c BA/G/ | FE FG AF B2- | B2) A2 z2 d2 | %58
w: lo.|||et|e- go vi-|vo pro- pter|Pa\- * * * * * *||* trem et|
 f4 d2 (d2- | dc/B/ cd) _e4- | e2 _e2 d2 d2 | d2 (d3 c/B/ cd | _e6) e2 | d8 | z8 | z2 d2 f2 d2 | %66
w: qui man- du\-|* * * * * cat|* me, et qui|man- du\- * * * *|* cat|me||et i- pse|
 (fe dc B2) B2 | A2 d2 f4 | z2 A2 A2 A2 | d2 d2 c2 B2 | A8 ||"^Secunda pars" d8 | e4 f4- | f4 d4 | %74
w: vi\- * * * * vet|pro- pter me,|et i- pse|vi- vet pro- pter|me.|Hic|est pa\-|* nis|
 z8 | z4 z2 c2 | d2 (f3 e dc | BA GA Bc d2) | c2 B2 A4 | G4 z4 | z4 d4- | d4 e4 | f8 | d8 | %84
w: |qui|de cae\- * * *||lo de- scen-|dit,|hic|* est|pa-|nis|
 z2 G2 A2 c2 | c2 B2 A4 | G2 G2 d4 | d2 d2 d2 d2 | c4 B2 (F2- | FG AB) (c3 d | e2) (f2 e2 dc | %91
w: qui de cae-|lo de- scen-|dit, non si-|cut man- du- ca-|ve- runt pa\-|* * * * tres *|* ve\- * * *|
 d2) e2 f4 | f4 z2 d2 | f4 e2 c2 | d4 z4 | z8 | z8 | z8 | z8 | z8 | z8 | z4 z2 G2 | d4 c2 c2 | %103
w: * stri man-|na et|mor- tu- i|sunt,|||||||et|mor- tu- i|
 B2 d2 f4 | e2 c2 (dc BA | G2 FG A4) | z8 ||[M:3/4] x6 |[M:3/4][K:treble-8] d4 e2 | f4 f2 | d2 c4 | %111
w: sunt, et mor-|tu- i sunt. * * *||||Qui man-|du- cat|hunc pa-|
 A4 z2 | d4 e2 | f4 f2 | d2 c4 | A4 z2 ||[M:4/4] x8 | %117
w: nem,|qui man-|du- cat|hunc pa-|nem||
[M:4/4][K:treble-8][Q:1/4=192][Q:1/4=96][Q:1/4=192][Q:1/4=192][Q:1/4=192] z2 (DE FG AB | %118
w: vi\- * * * * *|
 cd ec d2) d2 | d2 f2 (e3 d | c2 d3 c cB/A/ | B6 AG) | A4 z4 | %123
w: * * * * * vet|in ae- ter\- *|||num.|
[Q:1/4=96][Q:1/4=96][Q:1/4=96][Q:1/4=96] z8 | z8 | z8 ||[M:3/4] d4 e2 | f4 f2 | d2 c4 | A4 z2 | %130
w: |||Qui man-|du- cat|hunc pa-|nem,|
 d4 e2 | f4 f2 |[M:3/4][K:treble-8] d2 c4 | A4 z2 ||[M:4/4] z2 (DE FG AB | cd ec) d2 d2 | %136
w: qui man-|du- cat|hunc pa-|nem|vi\- * * * * *|* * * * vet in|
 d2 (f2 e3 d | c2 d3 c cB/A/ |[M:4/4][K:treble-8] B6 AG) | A4 z4 | z8 | z4 z2 (d2- | dc BA GA B2) | %143
w: ae- ter\- * *|||num,||vi\-||
 A4 z2 (D2- | DE FG AB cd | ec d2) d2 (d2- | dc BA GA B2) | A4 z4 | z8 | z8 | d8 | %151
w: vet, vi\-||* * * vet, vi\-||vet|||vi-|
 c4[Q:1/4=94] B4 |[Q:1/4=91] d4[Q:1/4=88] (c4- |[Q:1/4=86] c2[Q:1/4=85] B2[Q:1/4=83] A4) | %154
w: vet in|ae- ter\-||
[Q:1/4=82] d8 |] %155
w: num.|
V:2
 d8 | d4 c4 | B2 G4 G2 | F2 (B3 A A2) | B4 z4 | D4 F2 F2 | (G3 A BG A2- | A2 d4 cB | %8
w: Ca-|ro me-|a ve- re|est ci\- * *|bus,|ve- re est|ci\- * * * *||
[M:4/4][K:treble-8] A2 F2 z2 B2 | B2 (A4 GA | B4) B4 | z8 | z4 D4 | F2 F2 G4 | F3 G AF G2- | %15
w: * bus, ca-|ro me\- * *|* a||ve-|re est ci\-||
 GF F3 E ED/E/) | F4 z4 | z4 z2 c2 | d6 B2 | d4 c4 | (B3 c d2) G2 | G2 (B3 A A2) | B8 | z4 z2 F2- | %24
w: |bus:|et|san- guis|me- us|ve\- * * re|est po\- * *|tus,|ve\-|
 F2 G4 F2- | F2 (B4 AG | BA A2) d4- | d4 z4 | z2 B4 B2 | (B2 c2) d4 | G2 (d3 c/B/ AG) | %31
w: * re est|* po\- * *|* * * tus.||Qui man-|du\- * cat|me- am * * * *|
 (BA A2 GA Bc) | d4 z4 | z8 | z8 | z4 z2 D2 | D2 C2 F2 D2 | F2 G2 A2 A2 | A4 F4 | D2 D2 D4 | %40
w: car\- * * * * * *|nem|||et|bi- bit me- um|san- gui- nem in|me ma-|net, et e-|
 C2 C2 (c3 B | AG A2) F4 | z4 z2 A2 | d4 B4 | G4 z2 B2 | (AG AB c2) F2 | c2 (A3 G/F/ G2 | %47
w: go in il\- *|* * * lo,|in|me ma-|net, et|e\- * * * * go|in il\- * * *|
 AF B3 A GF | G4) A4 | z8 | z2 G2 B2 B2 | c4 c2 d2- | d2 c2 (Bc d2- | dc BA/G/ FE FG | %54
w: |* lo.||Si- cut me|mi- sit vi\-|* vens Pa\- * *||
 AF B3 A A2) | (B3 c d4) | z8 | z8 | z2 A2 B4- | B2 A2 G4 | G4 F2 A2 | B6 A2 | G4 G4 | %63
w: |ter * *|||et qui|* man- du-|cat me, et|qui man-|du- cat|
 (F3 G AG FE | D3 E F4) | z4 z2 A2 | A2 A2 d2 d2 | (c2 B2) A2 A2 | D2 F4 F2 | F3 G A2 d2 | d8 || %71
w: me * * * * *||et|i- pse vi- vet|pro\- * pter me,|et i- pse|vi- vet pro- pter|me.|
 z4 G4- | G4 A4 | B8 | A4 z2 G2 | A2 (c3 B AG | FE DE FG A2) | (GA Bc d2) B2 | (AG G3 F F2 | %79
w: Hic|* est|pa-|nis qui|de cae\- * * *||lo * * * * de-|scen\- * * * *|
 GC c3 B AG) | A4 z4 | z8 | z2 A2 c2 (d2- | dc BA GA B2) | (AG G2) F2 E2- | E2 D2 z2 D2 | %86
w: |dit,||qui de cae\-||lo * * de- scen\-|* dit, non|
 (d3 c BA B2) | (B3 A/G/ F2) D2 | E2 F2 G2 A2 | z2 (F3 G AB | c2) F2 c2 F2 | (B2 AG A2 B2) | %92
w: si\- * * * *|cut * * * man-|du- ca- ve- runt|pa\- * * *|* tres ve- stri|man\- * * * *|
 A4 z4 | z8 | z2 G2 d4 | d2 d2 d2 d2 | c4 B2 (F2- | FG AB c2) d2 | (c2 BA B2) c2 | d4 d4 | %100
w: na,||non si-|cut man- du- ca-|ve- runt pa\-|* * * * * tres|ve\- * * * stri|man- na|
 z2 G2 d4 | c2 c2 B2 d2 | f4 e2 c2 | (dc BA BA AG/F/ | G4) z2 G2 | d4 c2 c2 | =B4 z4 ||[M:3/4] x6 | %108
w: et mor-|tu- i sunt, et|mor- tu- i|sunt, * * * * * * * *|* et|mor- tu- i|sunt.||
[M:3/4][K:treble-8] A4 c2 | d4 c2 | B2 _e4 | d4 z2 | F4 G2 | A4 A2 | B2 (G4 | F3 D FG) || %116
w: Qui man-|du- cat|hunc pa-|nem,|qui man-|du- cat|hunc pa\-||
[M:4/4] x8 |[M:4/4][K:treble-8] A4 z2 A2- | A2 G4 F2- | F2 A4 (G2- | GF D2 F2 EF) | G4 z4 | z8 | %123
w: |nem vi\-|* vet in|* ae- ter\-||num.||
 z8 | z8 | z8 ||[M:3/4] F4 G2 | B4 A2 | B2 G4 | (F3 D FG) | A2 A2 c2 | d4 c2 | %132
w: |||Qui man-|du- cat|hunc pa-|nem, * * *|qui man- du-|cat hunc|
[M:3/4][K:treble-8] (B2 _e4) | d6 ||[M:4/4] z8 | z8 | z8 | z8 |[M:4/4][K:treble-8] d8 | c4 B4 | %140
w: pa\- *|nem|||||vi-|vet in|
 d4 (c4- | c2 B2 A4) | G4 z2 (DE | FG AF G2) G2 | F2 B2 (AG A2- | AG G4 F2) | G4 z4 | z8 | z8 | %149
w: ae- ter\-||num, vi\- *|* * * * * vet|in ae- ter\- * *||num,|||
 z4 z2 (d2- | dc BA GA B2) | A4 z2 (D2- | DE FG AB cd | _e2) d2 d4 | =B8 |] %155
w: vi\-||vet in||* ae- ter-|num.|
V:3
 z8 | z8 | d8 | d4 c4 | B2 G4 G2 | F2 (B3 A A2) | B4 z2 D2 | F2 F2 G4 | %8
w: ||Ca-|ro me-|a ve- re|est ci\- * *|bus, ve-|re est ci-|
[M:4/4][K:treble-8] F2 A2 A2 (G2- | G2 F3 E ED/E/) | F2 G4 G2 | F2 (B3 A A2) | B4 z2 A2- | %13
w: bus, ca- ro me\-||a ve- re|est ci\- * *|bus: et|
 A2 c4 c2 | (A3 G F2 B2- | BA AG/F/) G4 | z2 (B3 c d2) | D2 D2 F4 | F4 z4 | z8 | z8 | z4 c4 | %22
w: * san- guis|me\- * * *|* * * * * us|ve\- * *|re est po-|tus,|||et|
 d6 B2 | d4 c4 | (B3 c d2) D2 | D2 (F3 E/D/ FE | F3 G/A/ B3 G | G2 F2) G4 | z8 | z8 | z8 | z4 B4- | %32
w: san- guis|me- us|ve\- * * re|est po\- * * * *||* * tus:||||qui|
 B2 B2 B2 c2 | d4 G2 (d2- | dc/B/ AG B2 A2- | AG/F/ AG) A4 | z4 z2 D2 | D2 C2 F2 D2 | F2 E2 D4 | %39
w: * man- du- cat|me- am car\-||* * * * * nem|et|bi- bit me- um|san- gui- nem|
 z2 F2 G4 | _E4 C2 C2 | (DE FG A2) B2 | A2 (G3 F F2) | B4 z2 G2 | d4 d2 d2 | (c3 B AG A2- | %46
w: in me|ma- net, et|e\- * * * * go|in il\- * *|lo, et|e- go in|il\- * * * *|
 AG F2 E4) | D4 z2 G2 | B2 B2 c4 | c2 d4 c2 | (Bc d3 c BA/G/ | FE FG AF B2- | BA AG/A/ B4- | %53
w: |lo. Si-|cut me mi-|sit vi- vens|Pa\- * * * * * *|||
 B2 G2) A4 | z8 | z2 G2 B2 B2 | c4 c2 d2- | d2 c2 B4 | A2 F2 G4- | G2 A2 B4 | c4 A2 F2 | G6 A2 | %62
w: * * ter||et e- go|vi- vo pro\-|* pter Pa-|trem et qui|* man- du-|cat me, et|qui man-|
 B4 c4 | A4 z2 A2 | A2 A2 d2 d2 | c2 B2 (AG FE | D6) D2 | F2 D2 (DE FG) | A2 d2 c2 d2 | %69
w: du- cat|me et|i- pse vi- vet|pro- pter me, * * *|* et|i- pse vi\- * * *|vet pro- pter me,|
 (D3 E FD G2- | G2) (^FE) F4 || z8 | z8 | z4 D4- | D4 E4 | F8 | D8 | z8 | z8 | z2 G2 A2 (c2- | %80
w: pro\- * * * *|* pter * me.|||Hic|* est|pa-|nis|||qui de cae\-|
 cB AG FG A2) | G2 F2 E4 | D4 z2 A2 | G2 G4 F2 | E2 D4 (CD | EF) G3 F (FE/F/) | G8 | z8 | z8 | %89
w: |lo de- scen-|dit, hic|est pa- nis|qui de cae\- *|* * lo de- scen\- * *|dit,|||
 D4 A4 | A2 A2 A2 A2 | G4 F2 (D2- | DE FG A2) B2 | (A2 GF G2) A2 | B4 B2 G2 | B4 A2 G2 | %96
w: non si-|cut man- du- ca-|ve- runt pa\-|* * * * * tres|ve\- * * * stri|man- na et|mor- tu- i|
 (A3 B/c/ d4) | z4 z2 D2 | A2 D2 G4 | F2 F2 (F3 G | A2 (B2 A2 GF | G2) A2 B2 B2 | z2 A2 A4 | %103
w: sunt, * * *|man-|du- ca- ve-|runt pa- tres *|* ve\- * * *|* stri man- na|et mor-|
 G2 G2 F4 | z4 z2 D2 | D4 E2 F2 | D4 z4 ||[M:3/4] x6 |[M:3/4][K:treble-8] F4 G2 | B4 A2 | B2 G4 | %111
w: tu- i sunt,|et|mor- tu- i|sunt.||Qui man-|du- cat|hunc pa\-|
 F3 D) (FG) | A2 A2 c2 | d4 c2 | (B2 _e4) | d6 ||[M:4/4] x8 |[M:4/4][K:treble-8] z8 | z8 | z8 | %120
w: * * nem, *|qui man- du-|cat hunc|pa\- *|nem|||||
 z8 | d8 | c4 B4 | d4 (c4- | c2 B2 A4) | G4 z4 ||[M:3/4] A4 c2 | d4 c2 | B2 _e4 | d4 z2 | F4 G2 | %131
w: |vi-|vet in|ae- ter\-||num.|Qui man-|du- cat|hunc pa-|nem,|qui man-|
 B4 A2 |[M:3/4][K:treble-8] B2 (G4 | F3 D FG) ||[M:4/4] A4 z2 A2- | A2 G4 F2- | F2 A4 (G2- | %137
w: du- cat|hunc pa\-||nem vi\-|* vet in|* ae- ter\-|
 GF D2 F2 EF) |[M:4/4][K:treble-8] G4 z4 | z8 | z8 | z8 | d8 | c4 B4 | d4 (c4- | c2 B2) A4 | %146
w: |num,||||vi-|vet in|ae- ter\-|* * num,|
 z4 d4 | c4 B4 | d4 (c4- | c2 B2 A4) | G4 z2 (DE | FG AF G2) G2 | F2 B2 (AG A2- | AG G4 ^F2) | %154
w: vi-|vet in|ae- ter\-||num, vi\- *|* * * * * vet|in ae- ter\- * *||
 G8 |] %155
w: num.|
V:4
 z8 | z8 | z8 | z8 | z8 | z8 | z8 | z8 |[M:4/4] D,8 | D,4 C,4 | B,,4 z4 | D,4 F,2 F,2 | G,4 F,4 | %13
w: ||||||||Ca-|ro me-|a|ve- re est|ci- bus:|
 z4 C,4 | D,6 B,,2 | D,4 C,4 | (B,,3 C, D,2) G,,2 | G,,2 (B,,3 A,, A,,2) | B,,4 z4 | z4 F,4 | %20
w: et|san- guis|me- us|ve- * * re|est po\- * *|tus,|et|
 G,6 _E,2 | G,4 F,4 | (B,,3 C, D,2) _E,2 | B,,4 F,4 | B,,4 z2 B,,2- | B,,2 B,,2 B,,2 C,2 | %26
w: san- guis|me- us|ve\- * * re|est po-|tus. Qui|* man- du- cat|
 D,4 G,,2 (G,2- | G,F, D,2 _E,3 D,/C,/) | B,,4 z4 | z4 z2 B,,2- | B,,2 B,,2 B,,2 C,2 | %31
w: me- am car\-||nem,|qui|* man- du- cat|
 D,4 G,,2 (G,2- | G,F, D,2 _E,3 D,/C,/) | B,,4 z4 | z4 z2 D,2 | D,2 C,2 F,2 D,2 | F,2 G,2 A,4 | %37
w: me- am car\-||nem|et|bi- bit me- um|san- gui- nem|
 z8 | A,,4 D,4 | B,,4 G,,2 G,,2 | G,4 G,2 G,2 | (F,3 _E, D,C, D,2- | D,C, B,,2 A,,4) | G,,8- | %44
w: |in me|ma- net, et|e- go in|il\- * * * *||lo.|
 G,,8 | z8 | z8 | z8 | z8 | z2 D,2 F,2 F,2 | G,4 G,4 | z2 A,4 G,2 | (F,4 G,4) | G,,4 z4 | %54
w: |||||Si- cut me|mi- sit|vi- vens|Pa\- *|ter|
 z2 D,2 F,2 F,2 | G,4 G,4 | z2 A,4 G,2 | (F,4 G,4) | D,4 z2 G,,2 | G,2 F,2 _E,4 | C,4 D,4 | %61
w: et e- go|vi- vo|pro- pter|Pa\- *|trem et|qui man- du-|cat me,|
 z2 G,,2 G,2 F,2 | _E,4 C,4 | D,2 D,2 F,2 D,2 | (F,E, D,C, B,,2) B,,2 | A,,2 G,,2 D,4 | z8 | %67
w: et qui man-|du- cat|me et i- pse|vi\- * * * * vet|pro- pter me,||
 z4 z2 D,2 | F,2 D,2 (F,E, D,C, | B,,2 B,,2 A,,2 G,,2 | D,8 || z8 | z8 | z8 | z8 | z8 | z8 | z8 | %78
w: et|i- pse vi\- * * *|* vet pro- pter|me.||||||||
 z4 D,4 | E,4 F,4- | F,4 D,4 | z4 z2 G,2 | A,2 F,3 E, D,C, | B,,A,, G,,A,, B,,C, D,2 | %84
w: Hic|est pa\-|* nis|qui|de cae\- * * *||
 C,2) B,,2 A,,4 | (G,,4 D,4) | G,,8 | z8 | z8 | z8 | z8 | z4 z2 B,,2 | D,4 D,2 D,2 | D,2 D,2 C,4 | %94
w: * lo de-|scen\- *|dit,|||||non|si- cut man-|du- ca- ve-|
 B,,2 (G,,3 A,, B,,C, | D,2) G,2 F,2 B,,2 | F,2 F,2 z2 B,,2 | F,4 F,2 F,2 | F,2 F,2 _E,4 | %99
w: runt pa\- * * *|* tres ve- stri|man- na, non|si- cut man-|du- ca- ve-|
 D,2 (B,,3 C, D,E, | F,2 G,2 (F,2 E,D, | E,2) F,2 G,4 | D,4 z4 | z2 G,,2 D,4 | C,2 C,2 B,,2 G,,2 | %105
w: runt pa\- * * *|* tres ve\- * *|* stri man-|na|et mor-|tu- i sunt, et|
 B,,4 A,,2 F,,2 | G,,4 z4 ||[M:3/4] x6 |[M:3/4] D,4 C,2 | B,,4 F,2 | G,2 C,4 | D,4 z2 | D,4 C,2 | %113
w: mor- tu- i|sunt.||Qui man-|du- cat|hunc pa-|nem,|qui man-|
 B,,4 F,2 | G,2 C,4 | D,4 z2 ||[M:4/4] x8 |[M:4/4] D,8 | C,4 B,,4 | D,4 C,4- | C,2 B,,2) A,,4 | %121
w: du- cat|hunc pa-|nem||vi-|vet in|ae- ter\-|* * num,|
 z2 (G,,A,, B,,C, D,E, | F,G, A,F, G,2) G,2 | G,2 B,2 (A,2 G,F, | E,D, G,3 F, F,2) | G,4 z4 || %126
w: vi\- * * * * *|* * * * * vet|in ae- ter\- * *||num.|
[M:3/4] D,4 C,2 | B,,4 F,2 | G,2 C,4 | D,4 z2 | D,4 C,2 | B,,4 F,2 |[M:3/4] G,2 C,4 | D,4 z2 || %134
w: Qui man-|du- cat|hunc pa-|nem,|qui man-|du- cat|hunc pa-|nem|
[M:4/4] D,8 | C,4 B,,4 | D,4 (C,4- | C,2 B,,2) A,,4 |[M:4/4] z2 (G,,A,, B,,C, D,E, | %139
w: vi-|vet in|ae- ter\-|* * num|vi\- * * * * *|
 F,G, A,F, G,2) G,2 | G,2 B,2 (A,2 G,F, | E,D, G,3 F, F,E,/F,/ | G,2 G,,2) G,,4 | z4 (G,,3 A,, | %144
w: * * * * * vet|in ae- ter\- * *||* * num,|in *|
 B,,C, D,E, F,3 E,/D,/ | C,2) G,,2 D,2 D,2 | z2 (G,,A,, B,,C, D,E, | F,G, A,F, G,2) G,2 | %148
w: |* ae- ter- num,|vi\- * * * * *|* * * * * vet|
 G,2 B,2 (A,2 G,F, | E,D, G,3 F, F,E,/F,/ | G,2 G,,2) G,,4 | z4 (G,,3 A,, | B,,C, D,E, F,3 E,/D,/ | %153
w: in ae- ter\- * *||* * num,|in *||
 C,2) G,,2 D,4 | G,,8 |] %155
w: * ae- ter-|num.|

